!!!!SEGMENT: Snf0240-Quare_fremuerunt_gentes.krn
!!!id: Snf0240
!!!AGN: Motet
!!!voices: 4
!!!COM: Ludwig Senfl
!!!OTL: Quare fremuerunt gentes
**kern	**text	**kern	**text	**kern	**text	**kern	**text
*part4	*part4	*part3	*part3	*part2	*part2	*part1	*part1
*staff4	*staff4	*staff3	*staff3	*staff2	*staff2	*staff1	*staff1
*I"Bassus	*	*I"Tenor	*	*I"Altus	*	*I"Superius	*
*I'B	*	*I'T	*	*I'A	*	*I'S	*
*clefF4	*	*clefGv2	*	*clefGv2	*	*clefG2	*
*k[b-]	*	*k[b-]	*	*k[b-]	*	*k[b-]	*
*F:	*	*F:	*	*F:	*	*F:	*
*M2/1	*	*M2/1	*	*M2/1	*	*M2/1	*
*met(C|)	*	*met(C|)	*	*met(C|)	*	*met(C|)	*
!!section: Prima pars: Quare fremuerunt gentes
!!!OMD: Prima pars: Quare fremuerunt gentes
=1	=1	=1	=1	=1	=1	=1	=1
0r	.	1A	Qua-	0r	.	0r	.
.	.	1B-y	.	.	.	.	.
=2	=2	=2	=2	=2	=2	=2	=2
0r	.	1A	-re	0r	.	0r	.
.	.	2r	.	.	.	.	.
.	.	[2A	fre-	.	.	.	.
=3	=3	=3	=3	=3	=3	=3	=3
1D	Qua-	2A]	.	0r	.	0r	.
.	.	2F	-mu-	.	.	.	.
1E-X	.	1G	-e-	.	.	.	.
=4	=4	=4	=4	=4	=4	=4	=4
1D	-re	1A	-runt	0r	.	0r	.
2r	.	1B-y	gen-	.	.	.	.
[2D	fre-	.	.	.	.	.	.
=5	=5	=5	=5	=5	=5	=5	=5
2D]	.	2A	.	0r	.	0r	.
2BB-y	-mu-	2B-y	.	.	.	.	.
2C	-e-	2A	.	.	.	.	.
2C	-runt	[2G	.	.	.	.	.
=6	=6	=6	=6	=6	=6	=6	=6
1D	gen-	4G]	.	0r	.	1a	Qua-
.	.	4F#i	.	.	.	.	.
.	.	2F#i	.	.	.	.	.
2GG	-tes,	1G	-tes,	.	.	1b-y	.
2G	gen-	.	.	.	.	.	.
=7	=7	=7	=7	=7	=7	=7	=7
1.F	.	0r	.	0r	.	1a	-re
.	.	.	.	.	.	2r	.
2D	.	.	.	.	.	[2a	fre-
=8	=8	=8	=8	=8	=8	=8	=8
1D	-tes,	0r	.	1d	Qua-	2a]	.
.	.	.	.	.	.	2f	-mu-
1r	.	.	.	1e-X	.	1g	-e-
=9	=9	=9	=9	=9	=9	=9	=9
0r	.	0r	.	1d	-re	1a	-runt
.	.	.	.	2r	.	1b-y	gen-
.	.	.	.	[2d	fre-	.	.
=10	=10	=10	=10	=10	=10	=10	=10
0r	.	0r	.	2d]	.	2a	.
.	.	.	.	2B-y	-mu-	2b-y	.
.	.	.	.	2c	-e-	2a	.
.	.	.	.	2c	-runt	[2g	.
=11	=11	=11	=11	=11	=11	=11	=11
1D	qua-	0r	.	2.d	gen-	4g]	.
.	.	.	.	.	.	4f	.
.	.	.	.	.	.	2f	.
.	.	.	.	4c	.	.	.
1E-X	.	.	.	2B-y	.	2.g	.
.	.	.	.	4A	.	.	.
.	.	.	.	4G	.	4f	.
=12	=12	=12	=12	=12	=12	=12	=12
2D	-re	1A	qua-	2F	.	2d	.
1D	fre-	.	.	2D	.	1f	.
.	.	1B-y	.	1d	-tes,	.	.
2BB-y	-mu-	.	.	.	.	4e	.
.	.	.	.	.	.	4d	.
=13	=13	=13	=13	=13	=13	=13	=13
2C	-e-	2A	-re	1r	.	1e	.
2C	-runt	1A	fre-	.	.	.	.
2.D	gen-	.	.	2r	.	1d	-tes
.	.	2F	-mu-	2A	[gen-	.	.
4C	.	.	.	.	.	.	.
=14	=14	=14	=14	=14	=14	=14	=14
2BB-y	.	2G	-e-	2B-y	.	0r	.
2AA	.	2A	-runt	2c	.	.	.
2GG	.	1B-y	gen-	1d	-tes]	.	.
2D	.	.	.	.	.	.	.
=15	=15	=15	=15	=15	=15	=15	=15
2C	.	2A	.	2r	.	1r	.
2BB-y	.	2.G	.	2d	et	.	.
1AA	.	.	.	2.c	po-	1a	et
.	.	4F#i	.	.	.	.	.
.	.	2F#i	.	.	.	.	.
.	.	.	.	4B-y	.	.	.
=16	=16	=16	=16	=16	=16	=16	=16
1GG	-tes	1G	-tes	4G	.	1.b-y	po-
.	.	.	.	4A	.	.	.
.	.	.	.	1B-y	.	.	.
1G	et	1B-y	et	.	.	.	.
.	.	.	.	4A	-pu-	2g	-pu-
.	.	.	.	4G	.	.	.
=17	=17	=17	=17	=17	=17	=17	=17
1.G	po-	1.B-y	po-	1d	-li	1g	-li
.	.	.	.	1r	.	2r	.
2D	-pu-	2A	-pu-	.	.	[2a	me-
=18	=18	=18	=18	=18	=18	=18	=18
1D	-li	2A	-li	1.d	me-	2a]	.
.	.	2F	me-	.	.	2a	-di-
1r	.	1G	-di-	.	.	2g	-ta-
.	.	.	.	4c	.	2g	-ti
.	.	.	.	4B-y	.	.	.
=19	=19	=19	=19	=19	=19	=19	=19
1.D	me-	2A	-ta-	2A	.	2.f	sunt
.	.	2A	-ti	2F	-di-	.	.
.	.	.	.	.	.	4f	in-
.	.	1D	sunt,	2F	-ta-	2f	-a-
2D	-di-	.	.	2F	-ti	4e	.
.	.	.	.	.	.	4d	.
=20	=20	=20	=20	=20	=20	=20	=20
2C	-ta-	1r	.	2G	sunt	2e	.
2C	-ti	.	.	2A	in-	2e	-ni-
2.BB-y	sunt	[1d	me-	2B-y	-a-	1d	-a,
.	.	.	.	[2G	.	.	.
4BB-y	in-	.	.	.	.	.	.
=21	=21	=21	=21	=21	=21	=21	=21
2BB-y	-a-	2d]	.	2G]	.	0r	.
4AA	.	2d	-di-	4F	.	.	.
4GG	.	.	.	4E	.	.	.
2AA	.	2c	-ta-	2F#i	.	.	.
2AA	-ni-	2c	-ti	2F#i	-ni-	.	.
=22	=22	=22	=22	=22	=22	=22	=22
0GG	-a,	2.B-y	sunt	1G	-a,	1.dd	me-
.	.	4B-y	in-	.	.	.	.
.	.	2B-y	-a-	1r	.	.	.
.	.	4A	.	.	.	2dd	-di-
.	.	4G	.	.	.	.	.
=23	=23	=23	=23	=23	=23	=23	=23
1r	.	1A	.	1c	me-	2cc	-ta-
.	.	.	.	.	.	2cc	-ti
2r	.	2.G	.	2.d	-di-	1b-y	sunt
2G	in-	.	.	.	.	.	.
.	.	4F	.	4e	.	.	.
=24	=24	=24	=24	=24	=24	=24	=24
2F	.	2D	.	0f	.	2a	in-
2.B-y	-a-	1d	.	.	.	1b-y	-a-
4A	.	.	.	.	.	.	.
2F	.	2c	.	.	.	[2a	.
=25	=25	=25	=25	=25	=25	=25	=25
2G	.	2B-y	.	2d	-ta-	4a]	.
.	.	.	.	.	.	4g	.
2C	.	2c	.	2e	-ti	2.g	.
1D	-ni-	1A	-ni-	1d	sunt	.	.
.	.	.	.	.	.	4f#i	.
.	.	.	.	.	.	2f#i	-ni-
=26	=26	=26	=26	=26	=26	=26	=26
1GG	-a?	1G	-a?	1d	in-	0g	-a?
[1G	A-	1r	.	2.B-y	-a-	.	.
.	.	.	.	4G	.	.	.
=27	=27	=27	=27	=27	=27	=27	=27
2G]	.	1r	.	4B-y	.	0r	.
.	.	.	.	4c	.	.	.
2G	-sti-	.	.	1d	.	.	.
2G	-te-	[1d	A-	.	.	.	.
2G	-runt	.	.	4c	.	.	.
.	.	.	.	4B-y	.	.	.
=28	=28	=28	=28	=28	=28	=28	=28
2F	re-	2d]	.	2A	.	0r	.
2F	-ges	2d	-sti-	2A	-ni-	.	.
1B-y	ter-	2d	-te-	1G	-a?	.	.
.	.	2d	-runt	.	.	.	.
=29	=29	=29	=29	=29	=29	=29	=29
1A	-rae,	2c	re-	0r	.	0r	.
.	.	2c	-ges	.	.	.	.
2r	.	1f	ter-	.	.	.	.
2F	[re-	.	.	.	.	.	.
=30	=30	=30	=30	=30	=30	=30	=30
1G	-ges	1e	-rae,	0r	.	0r	.
1A	ter-	2r	.	.	.	.	.
.	.	2c	[ter-	.	.	.	.
=31	=31	=31	=31	=31	=31	=31	=31
[0D	-rae,]	2.d	.	1.d	A-	0r	.
.	.	4c	.	.	.	.	.
.	.	4d	.	.	.	.	.
.	.	4e	.	.	.	.	.
.	.	[2f	.	2d	-sti-	.	.
=32	=32	=32	=32	=32	=32	=32	=32
1D]	.	2f]	.	2d	-te-	1.a	A-
.	.	4e	.	2d	-runt	.	.
.	.	4d	.	.	.	.	.
1r	.	1e	.	2c	re-	.	.
.	.	.	.	2c	-ges	2a	-sti-
=33	=33	=33	=33	=33	=33	=33	=33
0r	.	1d	-rae,]	1f	ter-	2a	-te-
.	.	.	.	.	.	2a	-runt
.	.	1r	.	1e	-rae,	2g	re-
.	.	.	.	.	.	2g	-ges
=34	=34	=34	=34	=34	=34	=34	=34
0r	.	1r	.	2r	.	1cc	ter-
.	.	.	.	2c	ter-	.	.
.	.	2r	.	2d	.	1b-y	.
.	.	2G	ter-	2B-y	.	.	.
=35	=35	=35	=35	=35	=35	=35	=35
0r	.	2A	.	2c	.	2a	.
.	.	1B-y	.	1d	.	1g	.
.	.	4A	.	4c	.	4f	.
.	.	4G	.	4B-y	.	4e	.
=36	=36	=36	=36	=36	=36	=36	=36
1r	.	2F	.	1A	.	1d	-rae,
.	.	2D	-rae,	.	.	.	.
1G	et	1d	et	[1G	-rae,	1r	.
=37	=37	=37	=37	=37	=37	=37	=37
1B-y	prin-	1d	prin-	1G]	.	0r	.
2A	-ci-	2c	-ci-	1r	.	.	.
[2G	-pes	[2B-y	-pes	.	.	.	.
=38	=38	=38	=38	=38	=38	=38	=38
2G]	.	2B-]	.	2r	.	1d	et
4F	.	4A	.	2d	et	.	.
4E	.	4G	.	.	.	.	.
1D	.	1A	.	1d	prin-	1f	prin-
=39	=39	=39	=39	=39	=39	=39	=39
0r	.	0r	.	2c	-ci-	2e	-ci-
.	.	.	.	1B-y	-pes	1d	-pes
.	.	.	.	4A	.	4c	.
.	.	.	.	4G	.	4B-y	.
=40	=40	=40	=40	=40	=40	=40	=40
1r	.	1r	.	1F	.	1A	.
2r	.	2r	.	2G	.	2G	.
[2G	con-	[2B-y	con-	[2d	con-	[2g	con-
=41	=41	=41	=41	=41	=41	=41	=41
2G]	.	2B-]	.	2d]	.	2g]	.
2G	-ve-	2B-y	-ve-	2d	-ve-	2g	-ve-
1G	-ne-	1B-y	-ne-	1d	-ne-	1g	-ne-
=42	=42	=42	=42	=42	=42	=42	=42
2D	-runt	2A	-runt	2d	-runt	2f	-runt
2D	in	2A	in	2d	in	2f	in
1G	u-	1B-y	u-	2.d	u-	1b-y	u-
.	.	.	.	4e	.	.	.
=43	=43	=43	=43	=43	=43	=43	=43
1F	-num	2.c	.	1f	.	1a	-num,
.	.	4B-y	.	.	.	.	.
1r	.	4G	.	2e	.	2r	.
.	.	4A	.	.	.	.	.
.	.	[2B-y	.	[2d	.	[2g	[u-
=44	=44	=44	=44	=44	=44	=44	=44
1r	.	2B-]	.	2d]	.	2g]	.
.	.	4A	.	4c	.	4f#i	.
.	.	4G	.	4B-y	.	4e	.
2r	.	1A	.	2c	.	1f#i	.
2D	ad-	.	.	2d	.	.	.
=45	=45	=45	=45	=45	=45	=45	=45
2E	-ver-	1G	-num	2G	.	1g	-num]
2C	-sus	.	.	2.c	.	.	.
1F	Do-	1r	.	.	.	1r	.
.	.	.	.	4A	.	.	.
.	.	.	.	[2d	.	.	.
=46	=46	=46	=46	=46	=46	=46	=46
1E	-mi-	2r	.	2d]	.	0r	.
.	.	2G	ad-	2c#i	.	.	.
1D	-num,	2A	-ver-	1d	.	.	.
.	.	2F	-sus	.	.	.	.
=47	=47	=47	=47	=47	=47	=47	=47
0r	.	1B-y	Do-	1d	-num	2r	.
.	.	.	.	.	.	2g	ad-
.	.	1A	-mi-	2r	.	2a	-ver-
.	.	.	.	2c	ad-	2f	-sus
=48	=48	=48	=48	=48	=48	=48	=48
2r	.	1G	-num	2d	-ver-	2.b-y	Do-
2G	ad-	.	.	2B-y	-sus	.	.
.	.	.	.	.	.	4b-y	-mi-
2A	-ver-	1r	.	2c	Do-	1a	-num,
2F	-sus	.	.	2c	-mi-	.	.
=49	=49	=49	=49	=49	=49	=49	=49
1B-y	Do-	0r	.	1d	-num,	2r	.
.	.	.	.	.	.	1g	Do-
1A	.	.	.	2r	.	.	.
.	.	.	.	2c	[Do-	2f#i	-mi-
=50	=50	=50	=50	=50	=50	=50	=50
1.G	.	0r	.	2.d	.	0g	-num
.	.	.	.	4c	.	.	.
.	.	.	.	2B-y	.	.	.
4F	.	.	.	4A	.	.	.
4E	.	.	.	4G	.	.	.
=51	=51	=51	=51	=51	=51	=51	=51
2F	.	1r	.	2A	.	0r	.
2G	-mi-	.	.	2B-y	.	.	.
1D	-num	[1d	et	1A	-mi-	.	.
=52	=52	=52	=52	=52	=52	=52	=52
2r	.	2d]	.	2G	-num]	2r	.
1G	et	2d	ad-	1g	et	1b-y	et
.	.	1d	-ver-	.	.	.	.
2G	ad-	.	.	2g	ad-	2b-y	ad-
=53	=53	=53	=53	=53	=53	=53	=53
2G	-ver-	1d	-sus	2g	-ver-	2b-y	-ver-
2G	-sus	.	.	2d	-sus	2b-y	-sus
2F	Chri-	1d	Chri-	1f	Chri-	2a	Chri-
2G	-stum	.	.	.	.	2b-y	-stum
=54	=54	=54	=54	=54	=54	=54	=54
1A	e-	1c	-stum	1e	-stum	2.cc	e-
.	.	.	.	.	.	4b-y	.
1D	.	2.d	e-	2r	.	4a	.
.	.	.	.	.	.	4g	.
.	.	.	.	[2d	e-	[2a	.
.	.	4c	.	.	.	.	.
=55	=55	=55	=55	=55	=55	=55	=55
1E	.	2B-y	.	2d]	.	4a]	.
.	.	.	.	.	.	4g	.
.	.	4A	.	2c	.	1g	.
.	.	4G	.	.	.	.	.
1D	.	1A	.	1d	.	.	.
.	.	.	.	.	.	2f#i	.
=56	=56	=56	=56	=56	=56	=56	=56
0GG	-ius.	0G	-ius.	1d	-ius.	2g	.
.	.	.	.	.	.	1b-y	.
.	.	.	.	1r	.	.	.
.	.	.	.	.	.	4a	.
.	.	.	.	.	.	4g	.
=57	=57	=57	=57	=57	=57	=57	=57
0r	.	0r	.	1.d	Di-	1f	-ius.
.	.	.	.	.	.	1r	.
.	.	.	.	2d	-rum-	.	.
=58	=58	=58	=58	=58	=58	=58	=58
0r	.	0r	.	1d	-pa-	1.a	Di-
.	.	.	.	1c	-mus	.	.
.	.	.	.	.	.	2a	-rum-
=59	=59	=59	=59	=59	=59	=59	=59
0r	.	0r	.	1.c	vin-	1a	-pa-
.	.	.	.	.	.	1g	-mus
.	.	.	.	2B-y	-cu-	.	.
=60	=60	=60	=60	=60	=60	=60	=60
0r	.	0r	.	2B-y	-la	1.g	vin-
.	.	.	.	2B-y	e-	.	.
.	.	.	.	1e-X	-o-	.	.
.	.	.	.	.	.	2g	-cu-
=61	=61	=61	=61	=61	=61	=61	=61
0r	.	0r	.	1d	-rum,	2f	-la
.	.	.	.	.	.	2f	e-
.	.	.	.	2r	.	1b-y	-o-
.	.	.	.	2d	e-	.	.
=62	=62	=62	=62	=62	=62	=62	=62
1.D	Di-	0r	.	2.f	-o-	1a	-rum,
.	.	.	.	4e	.	.	.
.	.	.	.	2d	.	1r	.
2D	-rum-	.	.	4c	.	.	.
.	.	.	.	4B-y	.	.	.
=63	=63	=63	=63	=63	=63	=63	=63
1D	-pa-	1.A	Di-	1A	-rum,	2r	.
.	.	.	.	.	.	2a	e-
1C	-mus	.	.	1r	.	2.cc	-o-
.	.	2A	-rum-	.	.	.	.
.	.	.	.	.	.	4b-y	.
=64	=64	=64	=64	=64	=64	=64	=64
1.C	vin-	1A	-pa-	0r	.	2a	.
.	.	.	.	.	.	4g	.
.	.	.	.	.	.	4f	.
.	.	1G	-mus	.	.	1e	.
2C	-cu-	.	.	.	.	.	.
=65	=65	=65	=65	=65	=65	=65	=65
2BB-y	-la	1.G	vin-	0r	.	1d	-rum,
2BB-y	e-	.	.	.	.	.	.
1E-i	-o-	.	.	.	.	1r	.
.	.	2G	-cu-	.	.	.	.
=66	=66	=66	=66	=66	=66	=66	=66
1D	-rum,	2F	-la	0r	.	0r	.
.	.	2F	e-	.	.	.	.
1GG	et	1B-y	-o-	.	.	.	.
=67	=67	=67	=67	=67	=67	=67	=67
1D	pro-	1A	-rum,	0r	.	0r	.
2D	-ji-	1D	et	.	.	.	.
2BB-y	-ci-	.	.	.	.	.	.
=68	=68	=68	=68	=68	=68	=68	=68
1E-i	-a-	1G	pro-	1G	et	0r	.
2D	-mus	2F	-ji-	1d	pro-	.	.
2D	a	2F	-ci-	.	.	.	.
=69	=69	=69	=69	=69	=69	=69	=69
1G	no-	1B-y	-a-	2d	-ji-	1d	et
.	.	.	.	2B-y	-ci-	.	.
1F	-bis,	1A	-mus,	1f	-a-	1a	pro-
=70	=70	=70	=70	=70	=70	=70	=70
0r	.	1D	et	2.f	-mus	2a	-ji-
.	.	.	.	.	.	2f	-ci-
.	.	.	.	4e	.	.	.
.	.	1G	pro-	2.d	.	[1b-y	-a-
.	.	.	.	4c	.	.	.
=71	=71	=71	=71	=71	=71	=71	=71
1r	.	2G	-ji-	2B-y	.	2b-]	.
.	.	2F	-ci-	2c	a	2a	.
1GG	[et	1B-y	-a-	1d	no-	1g	.
=72	=72	=72	=72	=72	=72	=72	=72
1D	pro-	2A	-mus	1d	-bis,	1f	-mus,
.	.	2F	a	.	.	.	.
2D	-ji-	[1B-y	no-	1r	.	1d	et
2BB-y	-ci-	.	.	.	.	.	.
=73	=73	=73	=73	=73	=73	=73	=73
1E-X	-a-	2B-]	.	1G	et	1g	pro-
.	.	4A	.	.	.	.	.
.	.	4G	.	.	.	.	.
2D	-mus	1A	.	1d	pro-	2f	-ji-
2D	a	.	.	.	.	2f	-ci-
=74	=74	=74	=74	=74	=74	=74	=74
1G	no-	1G	-bis	2d	-ji-	1b-y	-a-
.	.	.	.	2B-y	-ci-	.	.
1F	-bis]	2r	.	1f	-a-	2a	-mus
.	.	2c	iu-	.	.	2f	a
=75	=75	=75	=75	=75	=75	=75	=75
2r	.	2B-y	-gum	0d	-mus	1b-y	no-
2G	iu-	2G	i-	.	.	.	.
2F	-gum	1A	-pso-	.	.	2a	.
2D	i-	.	.	.	.	4g	.
.	.	.	.	.	.	4f	.
=76	=76	=76	=76	=76	=76	=76	=76
1E	-pso-	1G	-rum,	2r	.	1g	.
.	.	.	.	2g	… iu-	.	.
1D	-rum,	2r	.	2f	-gum	1a	-bis
.	.	2d	iu-	2d	i-	.	.
=77	=77	=77	=77	=77	=77	=77	=77
1r	.	2c	-gum	1e	-pso-	1r	.
.	.	2A	i-	.	.	.	.
2r	.	1B-y	-pso-	1d	-rum,	2r	.
2G	[iu-	.	.	.	.	2b-y	iu-
=78	=78	=78	=78	=78	=78	=78	=78
2F	-gum	2c	.	0r	.	2a	-gum
2D	i-	2d	.	.	.	2f	i-
1E	-pso-	4c	.	.	.	1g	-pso-
.	.	4B-y	.	.	.	.	.
.	.	4A	.	.	.	.	.
.	.	4G	.	.	.	.	.
=79	=79	=79	=79	=79	=79	=79	=79
1D	-rum,]	1A	-rum,	2r	.	2.f	.
.	.	.	.	2d	[iu-	.	.
.	.	.	.	.	.	4g	.
1r	.	2r	.	2c	-gum	1a	.
.	.	2c	[iu-	2A	i-	.	.
=80	=80	=80	=80	=80	=80	=80	=80
2r	.	2B-y	-gum	1B-y	-pso-	2d	-rum,
2G	iu-	2G	i-	.	.	2b-y	[iu-
2F	-gum	1A	-pso-	2c	.	2a	-gum
2D	i-	.	.	[2d	.	2f	i-
=81	=81	=81	=81	=81	=81	=81	=81
1E	-pso-	1G	-rum,]	2d]	.	1g	-pso-
.	.	.	.	2c	.	.	.
1D	-rum,	2r	.	2d	-rum,]	2f	-rum,]
.	.	2d	iu-	2f	iu-	2b-y	iu-
=82	=82	=82	=82	=82	=82	=82	=82
2r	.	2c	-gum	2e	-gum	2a	-gum
2F	iu-	2A	i-	2.c	i-	2f	i-
2E-i	-gum	2B-y	-pso-	.	.	2g	-pso-
.	.	.	.	4d	.	.	.
2C	i-	[2c	.	[2e-X	-pso-	[2a	.
=83	=83	=83	=83	=83	=83	=83	=83
1E-X	-pso-	4c]	.	4e-]	.	4a]	.
.	.	4B-y	.	4d	.	4g	.
.	.	4A	.	4B-y	.	2.g	.
.	.	4G	.	4c	.	.	.
1D	.	1A	.	1d	.	.	.
.	.	.	.	.	.	4f#i	.
.	.	.	.	.	.	2f#i	.
=84	=84	=84	=84	=84	=84	=84	=84
0GG	-rum.	1G	-rum.	1d	-rum.	1g	-rum.
.	.	1r	.	1G	Qui	1r	.
=85	=85	=85	=85	=85	=85	=85	=85
0r	.	1r	.	2G	ha-	1g	Qui
.	.	.	.	2G	-bi-	.	.
.	.	1G	Qui	[1d	-tat	2g	ha-
.	.	.	.	.	.	2g	-bi-
=86	=86	=86	=86	=86	=86	=86	=86
0r	.	2G	ha-	2d]	.	1.dd	-tat
.	.	2G	-bi-	2d	in	.	.
.	.	[1d	-tat	2.f	cae-	.	.
.	.	.	.	.	.	2dd	in
.	.	.	.	4e	.	.	.
=87	=87	=87	=87	=87	=87	=87	=87
0r	.	2d]	.	2d	.	2.ff	cae-
.	.	2d	in	4c	.	.	.
.	.	.	.	4B-y	.	4ee	.
.	.	2.f	cae-	2A	.	4dd	.
.	.	.	.	.	.	4cc	.
.	.	.	.	2F	.	2dd	.
.	.	4e	.	.	.	.	.
=88	=88	=88	=88	=88	=88	=88	=88
1GG	Qui	4d	.	1.B-y	.	2.b-y	.
.	.	4c	.	.	.	.	.
.	.	1d	.	.	.	.	.
.	.	.	.	.	.	4cc	.
2GG	ha-	.	.	.	.	[1dd	.
2GG	-bi-	4c	.	4A	.	.	.
.	.	4B-y	.	4G	.	.	.
=89	=89	=89	=89	=89	=89	=89	=89
1.D	-tat	1A	.	2F	.	2dd]	.
.	.	.	.	2D	-lis,	4cc	.
.	.	.	.	.	.	4b-y	.
.	.	2.F	.	2r	.	[1a	-lis
2D	in	.	.	2d	in	.	.
.	.	4G	.	.	.	.	.
=90	=90	=90	=90	=90	=90	=90	=90
2.F	cae-	1A	.	4c	cae-	1a]	.
.	.	.	.	4B-y	.	.	.
.	.	.	.	4A	.	.	.
4E	.	.	.	4G	.	.	.
4D	.	2D	.	2B-y	.	1r	.
4C	.	.	.	.	.	.	.
2D	.	2F	.	[2A	.	.	.
=91	=91	=91	=91	=91	=91	=91	=91
2C	.	2E	.	4A]	.	0r	.
.	.	.	.	4G	.	.	.
2BB-y	.	1D	.	2.G	.	.	.
1AA	.	.	.	.	.	.	.
.	.	.	.	4F#i	.	.	.
.	.	2C	.	2F#i	.	.	.
=92	=92	=92	=92	=92	=92	=92	=92
0GG	-lis	2D	-lis	1G	-lis	1.b-y	ir-
.	.	1d	ir-	.	.	.	.
.	.	.	.	1r	.	.	.
.	.	2c	-ri-	.	.	2a	-ri-
=93	=93	=93	=93	=93	=93	=93	=93
0r	.	2B-y	-de-	1r	.	2g	-de-
.	.	2A	-bit	.	.	2f	-bit
.	.	1G	e-	2r	.	1b-y	e-
.	.	.	.	[2d	ir-	.	.
=94	=94	=94	=94	=94	=94	=94	=94
2r	.	2.D	.	2d]	.	0a	-os,
1D	ir-	.	.	4c	.	.	.
.	.	4E	.	4B-y	.	.	.
.	.	2.F	.	2.A	-ri-	.	.
2D	-ri-	.	.	.	.	.	.
.	.	4G	.	4B-y	.	.	.
=95	=95	=95	=95	=95	=95	=95	=95
2C	-de-	2A	.	2c	-de-	1r	.
2BB-y	-bit	1B-y	.	2d	-bit	.	.
1E-i	e-	.	.	2.B-y	e-	1g	et
.	.	4A	.	.	.	.	.
.	.	4G	.	4c	.	.	.
=96	=96	=96	=96	=96	=96	=96	=96
1D	.	1A	.	2d	-os,	1.dd	Do-
.	.	.	.	2d	et	.	.
[1GG	-os,	2G	-os,	1d	Do-	.	.
.	.	2G	et	.	.	2dd	-mi-
=97	=97	=97	=97	=97	=97	=97	=97
1GG]	.	2.d	Do-	2G	-mi-	1dd	-nus
.	.	.	.	1B-y	-nus,	.	.
.	.	4d	-mi-	.	.	.	.
1r	.	1d	-nus	.	.	[1ff	sub-
.	.	.	.	4A	.	.	.
.	.	.	.	4G	.	.	.
=98	=98	=98	=98	=98	=98	=98	=98
0r	.	1.f	sub-	1F	.	2ff]	.
.	.	.	.	.	.	2ee	-san-
.	.	.	.	2r	.	2dd	-na-
.	.	2e	-san-	2G	et	2cc	-bit
=99	=99	=99	=99	=99	=99	=99	=99
1GG	et	1.d	-na-	1.d	Do-	1b-y	e-
[1D	Do-	.	.	.	.	1a	-os,
.	.	4c	.	2d	-mi-	.	.
.	.	4B-y	.	.	.	.	.
=100	=100	=100	=100	=100	=100	=100	=100
2D]	.	2A	.	1d	-nus	0r	.
2D	-mi-	2B-y	-bit	.	.	.	.
1D	-nus	1A	e-	[1f	sub-	.	.
=101	=101	=101	=101	=101	=101	=101	=101
1.F	sub-	1D	-os,	2f]	.	0r	.
.	.	.	.	2e	-san-	.	.
.	.	1r	.	2d	-na-	.	.
2E	-san-	.	.	2c	-bit	.	.
=102	=102	=102	=102	=102	=102	=102	=102
2D	-na-	2r	.	1.d	e-	1r	.
2C	-bit	2G	[et	.	.	.	.
2BB-y	e-	[1d	Do-	.	.	1g	[et
2AA	.	.	.	2c	.	.	.
=103	=103	=103	=103	=103	=103	=103	=103
1GG	.	2d]	.	1B-y	.	1.dd	Do-
.	.	2d	-mi-	.	.	.	.
1D	-os,	1d	-nus	1A	.	.	.
.	.	.	.	.	.	2dd	-mi-
=104	=104	=104	=104	=104	=104	=104	=104
0r	.	1.f	sub-	1D	-os,	1dd	-nus
.	.	.	.	1d	et	[1ff	sub-
.	.	2e	-san-	.	.	.	.
=105	=105	=105	=105	=105	=105	=105	=105
1D	[et	2d	-na-	1.d	Do-	2ff]	.
.	.	2c	-bit	.	.	2ee	-san-
[1G	Do-	2B-y	e-	.	.	2dd	-na-
.	.	2A	.	2d	-mi-	2cc	-bit
=106	=106	=106	=106	=106	=106	=106	=106
2G]	.	1G	.	1d	-nus	1b-y	e-
2G	-mi-	.	.	.	.	.	.
1F	-nus	1D	-os,]	[1f	sub-	1a	-os,]
=107	=107	=107	=107	=107	=107	=107	=107
1.B-y	sub-	1r	.	2f]	.	0r	.
.	.	.	.	2e	-san-	.	.
.	.	1G	et	2d	-na-	.	.
2A	-san-	.	.	2c	-bit	.	.
=108	=108	=108	=108	=108	=108	=108	=108
2G	-na-	1.d	Do-	2B-y	e-	1g	et
2F	-bit	.	.	2A	.	.	.
1G	e-	.	.	1G	.	[1dd	Do-
.	.	2d	-mi-	.	.	.	.
=109	=109	=109	=109	=109	=109	=109	=109
1D	-os,]	1d	-nus,	2A	.	2dd]	.
.	.	.	.	1B-y	.	2dd	-mi-
1r	.	1G	et	.	.	1dd	-nus
.	.	.	.	4A	.	.	.
.	.	.	.	4G	.	.	.
=110	=110	=110	=110	=110	=110	=110	=110
1D	et	1.d	Do-	1A	-os,	2.ff	sub-
.	.	.	.	.	.	4ee	-san-
[1G	Do-	.	.	1r	.	2dd	-na-
.	.	2d	-mi-	.	.	2cc	-bit
=111	=111	=111	=111	=111	=111	=111	=111
2G]	.	1d	-nus	1G	et	2b-y	e-
2G	-mi-	.	.	.	.	2a	.
1G	-nus	2.d	sub-	2.d	Do-	1g	-os,
.	.	4c	-san-	4d	-mi-	.	.
=112	=112	=112	=112	=112	=112	=112	=112
1.B-y	sub-	2B-y	-na-	1d	-nus	2r	.
.	.	2A	.	.	.	1dd	[sub-
.	.	1G	-bit	2d	sub-	.	.
2A	-san-	.	.	2d	-san-	2cc	-san-
=113	=113	=113	=113	=113	=113	=113	=113
2G	-na-	2r	.	4e	-na-	2b-y	-na-
.	.	.	.	4d	-bit	.	.
2F	-bit	2A	e-	1d	e-	2a	-bit
1E-X	e-	2B-y	.	.	.	1g	e-
.	.	2G	.	2c	.	.	.
=114	=114	=114	=114	=114	=114	=114	=114
[0Dl	-os.	2A	.	[0dl	-os.	[0fl	-os.]
.	.	1B-y	.	.	.	.	.
.	.	4A	.	.	.	.	.
.	.	4G	.	.	.	.	.
=115	=115	=115	=115	=115	=115	=115	=115
00D]	.	00A	-os.	00d]	.	00f]	.
=116||	=116||	=116||	=116||	=116||	=116||	=116||	=116||
*M2/1	*	*M2/1	*	*M2/1	*	*M2/1	*
*met(C|)	*	*met(C|)	*	*met(C|)	*	*met(C|)	*
!!section: Secunda pars: Et nunc, reges
!!!OMD: Secunda pars: Et nunc, reges
1.G	Et	0r	.	0r	.	0r	.
2G	nunc,	.	.	.	.	.	.
=117	=117	=117	=117	=117	=117	=117	=117
1G	re-	0d	Et	0r	.	0r	.
1F	-ges,	.	.	.	.	.	.
=118	=118	=118	=118	=118	=118	=118	=118
2G	in-	1d	nunc,	0r	.	0r	.
2A	-tel-	.	.	.	.	.	.
1B-y	-li-	1d	re-	.	.	.	.
=119	=119	=119	=119	=119	=119	=119	=119
2.A	.	1c	-ges,	0r	.	0r	.
4G	.	.	.	.	.	.	.
2F	.	1d	in-	.	.	.	.
2G	.	.	.	.	.	.	.
=120	=120	=120	=120	=120	=120	=120	=120
1E	-gi-	1e	-tel-	0r	.	0r	.
1D	-te.	[1f	-li-	.	.	.	.
=121	=121	=121	=121	=121	=121	=121	=121
1r	.	2f]	.	0r	.	0r	.
.	.	2e	.	.	.	.	.
[1G	E-	2d	.	.	.	.	.
.	.	2c	.	.	.	.	.
=122	=122	=122	=122	=122	=122	=122	=122
2G]	.	1.B-y	-gi-	0r	.	0r	.
2G	-ru-	.	.	.	.	.	.
2G	-di-	.	.	.	.	.	.
2G	-mi-	4A	.	.	.	.	.
.	.	4G	.	.	.	.	.
=123	=123	=123	=123	=123	=123	=123	=123
2F	-ni,	1A	-te.	0r	.	0r	.
2F	qui	.	.	.	.	.	.
[1G	iu-	[1d	E-	.	.	.	.
=124	=124	=124	=124	=124	=124	=124	=124
2G]	.	2d]	.	0r	.	0r	.
2A	-di-	2d	-ru-	.	.	.	.
1B-y	-ca-	2d	-di-	.	.	.	.
.	.	2d	-mi-	.	.	.	.
=125	=125	=125	=125	=125	=125	=125	=125
2.A	-tis	2c	-ni,	0r	.	0r	.
.	.	2c	qui	.	.	.	.
4G	.	.	.	.	.	.	.
2F	.	1d	iu-	.	.	.	.
2G	.	.	.	.	.	.	.
=126	=126	=126	=126	=126	=126	=126	=126
1E	ter-	1e	-di-	1r	.	0r	.
[1D	-ram.	2.f	-ca-	[1d	Et	.	.
.	.	4e	.	.	.	.	.
=127	=127	=127	=127	=127	=127	=127	=127
1D]	.	2d	.	2d]	.	0r	.
.	.	2c	-tis	2d	nunc,	.	.
1r	.	1B-y	ter-	1d	re-	.	.
=128	=128	=128	=128	=128	=128	=128	=128
0r	.	1A	-ram.	1c	-ges,	1.a	Et
.	.	1r	.	2d	in-	.	.
.	.	.	.	2e	-tel-	2a	nunc,
=129	=129	=129	=129	=129	=129	=129	=129
0r	.	0r	.	1f	-li-	1a	re-
.	.	.	.	1e	-gi-	1g	-ges,
=130	=130	=130	=130	=130	=130	=130	=130
0r	.	0r	.	1d	-te.	2a	in-
.	.	.	.	.	.	2b-y	-tel-
.	.	.	.	1r	.	2.cc	-li-
.	.	.	.	.	.	4b-y	.
=131	=131	=131	=131	=131	=131	=131	=131
0r	.	0r	.	2.d	E-	2a	.
.	.	.	.	.	.	2g	.
.	.	.	.	4d	-ru-	.	.
.	.	.	.	2d	-di-	1f	-gi-
.	.	.	.	2d	-mi-	.	.
=132	=132	=132	=132	=132	=132	=132	=132
0r	.	0r	.	2c	-ni,	1e	-te.
.	.	.	.	2c	qui	.	.
.	.	.	.	[1d	iu-	[1a	E-
=133	=133	=133	=133	=133	=133	=133	=133
0r	.	0r	.	2d]	.	2a]	.
.	.	.	.	2e	-di-	2a	-ru-
.	.	.	.	1f	-ca-	2a	-di-
.	.	.	.	.	.	2a	-mi-
=134	=134	=134	=134	=134	=134	=134	=134
0r	.	0r	.	1e	.	2g	-ni,
.	.	.	.	.	.	2g	qui
.	.	.	.	1d	-tis	2a	iu-
.	.	.	.	.	.	2b-y	-di-
=135	=135	=135	=135	=135	=135	=135	=135
0r	.	0r	.	2r	.	2.cc	-ca-
.	.	.	.	2c	ter-	.	.
.	.	.	.	.	.	4b-y	.
.	.	.	.	2d	.	2a	.
.	.	.	.	2e	.	2g	-tis
=136	=136	=136	=136	=136	=136	=136	=136
0r	.	0r	.	2f	.	1f	ter-
.	.	.	.	2d	.	.	.
.	.	.	.	2e	.	1e	-ram,
.	.	.	.	2A	.	.	.
=137	=137	=137	=137	=137	=137	=137	=137
0r	.	0r	.	2B-y	.	2r	.
.	.	.	.	2c	.	2e	ter-
.	.	.	.	2d	.	2f	.
.	.	.	.	2e	.	2g	.
=138	=138	=138	=138	=138	=138	=138	=138
0r	.	0r	.	2.f	.	2.a	.
.	.	.	.	4e	.	4g	.
.	.	.	.	4f	.	4a	.
.	.	.	.	4d	.	4f	.
.	.	.	.	[2e	.	[2g	.
=139	=139	=139	=139	=139	=139	=139	=139
0r	.	1r	.	4e]	.	4g]	.
.	.	.	.	4d	.	4f	.
.	.	.	.	1d	.	4e	.
.	.	.	.	.	.	4d	.
.	.	1A	Ser-	.	.	1e	.
.	.	.	.	2c#i	.	.	.
=140	=140	=140	=140	=140	=140	=140	=140
0r	.	2B-y	-vi-	1.d	.	1d	-ram.
.	.	2G	-te	.	.	.	.
.	.	2B-y	Do-	.	.	1r	.
.	.	2c	-mi-	2c	.	.	.
=141	=141	=141	=141	=141	=141	=141	=141
2r	.	1d	-no,	2B-y	.	1r	.
2D	Ser-	.	.	2A	.	.	.
2E	-vi-	2r	.	1G	-ram.	2r	.
2C	-te	2G	[ser-	.	.	2e	Ser-
=142	=142	=142	=142	=142	=142	=142	=142
1F	Do-	2A	-vi-	1r	.	2f	-vi-
.	.	2F	-te	.	.	2d	-te
1E	-mi-	2B-y	Do-	2r	.	2d	Do-
.	.	4A	-mi-	2G	Ser-	2c	-mi-
.	.	4G	.	.	.	.	.
=143	=143	=143	=143	=143	=143	=143	=143
1D	-no,	2F	-no,]	2A	-vi-	1d	-no,
.	.	2D	.	2F	-te	.	.
2r	.	1d	ser-	1B-y	Do-	1r	.
2G	[ser-	.	.	.	.	.	.
=144	=144	=144	=144	=144	=144	=144	=144
2G	-vi-	2d	-vi-	1A	-mi-	2r	.
2F	-te	1d	-te	.	.	2a	[ser-
[1G	Do-	.	.	1G	-no	2b-y	-vi-
.	.	[2B-y	Do-	.	.	2g	-te
=145	=145	=145	=145	=145	=145	=145	=145
2G]	.	2B-]	.	1.d	in	2b-y	Do-
4F	.	4A	.	.	.	2cc	-mi-
4E	.	4G	.	.	.	.	.
2D	.	2A	.	.	.	1dd	-no]
2D	-mi-	2A	-mi-	2d	ti-	.	.
=146	=146	=146	=146	=146	=146	=146	=146
1GG	-no]	1G	-no	1d	-mo-	2r	.
.	.	.	.	.	.	1dd	in
[1G	in	2r	.	2.B-y	.	.	.
.	.	[2G	in	.	.	2cc	ti-
.	.	.	.	4c	.	.	.
=147	=147	=147	=147	=147	=147	=147	=147
2G]	.	2G]	.	1d	.	2b-y	-mo-
2F	ti-	2A	ti-	.	.	2a	.
2E-X	-mo-	2B-y	-mo-	1e-X	.	1g	.
2C	.	2c	.	.	.	.	.
=148	=148	=148	=148	=148	=148	=148	=148
1D	.	1A	.	1d	-re,	1f	-re,
1GG	-re,	1G	-re,	1d	et	1r	.
=149	=149	=149	=149	=149	=149	=149	=149
1G	et	1B-y	et	2d	e-	0r	.
.	.	.	.	2d	-xul-	.	.
2G	e-	2B-y	e-	2d	-ta-	.	.
2G	-xul-	2B-y	-xul-	4c	.	.	.
.	.	.	.	4B-y	.	.	.
=150	=150	=150	=150	=150	=150	=150	=150
1A	-ta-	1c	-ta-	2A	.	1a	et
.	.	.	.	2F	-te,	.	.
1D	-te,	[1d	-te,	[1f	[et	2a	e-
.	.	.	.	.	.	2a	-xul-
=151	=151	=151	=151	=151	=151	=151	=151
2r	.	1d]	.	2f]	.	1b-y	-ta-
2G	[et	.	.	2g	e-	.	.
2A	e-	2r	.	2e	-xul-	1cc	-te,
2F	-xul-	2c	et	[2f	-ta-	.	.
=152	=152	=152	=152	=152	=152	=152	=152
1B-y	-ta-	2d	e-	2f]	.	2r	.
.	.	2B-y	-xul-	4e	.	2g	et
.	.	.	.	4d	.	.	.
1A	-te]	2.c	-ta-	2e	.	2a	e-
.	.	.	.	2c	.	2f	-xul-
.	.	4B-y	.	.	.	.	.
=153	=153	=153	=153	=153	=153	=153	=153
2r	.	2G	-te	1d	-te]	1b-y	-ta-
2G	e-	2.d	e-	.	.	.	.
2F	-i	.	.	2r	.	[1a	-te
.	.	4e	.	.	.	.	.
2D	cum	[2f	.	2d	e-	.	.
=154	=154	=154	=154	=154	=154	=154	=154
4D	tre-	2f]	.	1f	.	0a]	.
4E	.	.	.	.	.	.	.
4F	.	4e	.	.	.	.	.
4G	.	4d	.	.	.	.	.
1A	-mo-	1c	.	1e	.	.	.
=155	=155	=155	=155	=155	=155	=155	=155
1D	-re,	1d	-i	1d	-i	1.a	e-
2r	.	[1d	cum	[1f	cum	.	.
[2D	cum	.	.	.	.	2a	-i
=156	=156	=156	=156	=156	=156	=156	=156
2D]	.	2d]	.	2f]	.	1a	cum
2D	tre-	2d	tre-	2f	tre-	.	.
1D	-mo-	1d	-mo-	1f	-mo-	1a	tre-
=157	=157	=157	=157	=157	=157	=157	=157
2GG	-re,	2.d	.	2.g	.	2.b-y	-mo-
1G	[cum	.	.	.	.	.	.
.	.	4c	.	4f	.	4a	.
.	.	2B-y	.	4d	.	2g	.
.	.	.	.	4e	.	.	.
2F	tre-	2A	.	2f	.	[2a	.
=158	=158	=158	=158	=158	=158	=158	=158
2G	-mo-	2B-y	.	2d	.	4a]	.
.	.	.	.	.	.	4g	.
2C	.	2c	.	2e	.	1g	.
1D	-re.]	1A	.	1d	-re,	.	.
.	.	.	.	.	.	2f#i	.
=159	=159	=159	=159	=159	=159	=159	=159
0r	.	2G	.	2d	tre-	1g	-re.
.	.	1c	.	1e	-mo-	.	.
.	.	.	.	.	.	[1g	Ap-
.	.	4B-y	.	4d	.	.	.
.	.	4A	.	4c	.	.	.
=160	=160	=160	=160	=160	=160	=160	=160
0r	.	2B-y	.	2d	.	2g]	.
.	.	2c	-re.	2e	.	2a	-pre-
.	.	[1G	Ap-	1d	-re.	2b-y	-hen-
.	.	.	.	.	.	2g	.
=161	=161	=161	=161	=161	=161	=161	=161
0r	.	2G]	.	1r	.	2b-y	.
.	.	2A	-pre-	.	.	2cc	-di-
.	.	2B-y	-hen-	[1G	Ap-	1dd	-te,
.	.	2G	.	.	.	.	.
=162	=162	=162	=162	=162	=162	=162	=162
1r	.	2B-y	.	2G]	.	2.dd	[ap-
.	.	2c	-di-	2A	-pre-	.	.
.	.	.	.	.	.	4cc	-pre-
[1GG	Ap-	[1d	-te	2B-y	-hen-	[1b-y	-hen-
.	.	.	.	2G	.	.	.
=163	=163	=163	=163	=163	=163	=163	=163
2GG]	.	1d]	.	2B-y	.	2b-]	.
2AA	-pre-	.	.	2c	.	4a	.
.	.	.	.	.	.	4g	.
2BB-y	-hen-	2r	.	2.d	.	2f	.
2GG	.	[2d	di-	.	.	[2g	-di-
.	.	.	.	4c	.	.	.
=164	=164	=164	=164	=164	=164	=164	=164
2BB-y	.	2d]	.	2B-y	.	2g]	.
2C	-di-	2e	-sci-	4A	.	4f	.
.	.	.	.	4G	.	4e	.
1D	-te	2f	-pli-	2F	.	2d	-te]
.	.	[2d	.	2F	-di-	[2dd	di-
=165	=165	=165	=165	=165	=165	=165	=165
1r	.	2d]	.	1D	-te	2dd]	.
.	.	4c	.	.	.	2ee	-sci-
.	.	4B-y	.	.	.	.	.
[1D	di-	2A	.	2.d	di-	2ff	-pli-
.	.	2B-y	.	.	.	[2dd	.
.	.	.	.	4e	-sci-	.	.
=166	=166	=166	=166	=166	=166	=166	=166
2D]	.	2A	.	2.f	-pli-	2dd]	.
2E	-sci-	2G	.	.	.	4cc	.
.	.	.	.	4g	.	4b-y	.
2F	-pli-	2.F	.	4a	.	1a	-nam,
.	.	.	.	4f	.	.	.
2D	.	.	.	[2a	.	.	.
.	.	4G	.	.	.	.	.
=167	=167	=167	=167	=167	=167	=167	=167
2F	.	1A	-nam	2a]	.	2r	.
2G	.	.	.	4g	.	2dd	[di-
.	.	.	.	4f	.	.	.
1A	.	2r	.	1e	.	2dd	-sci-
.	.	[2A	ne-	.	.	2cc#i	-pli-
=168	=168	=168	=168	=168	=168	=168	=168
2D	.	2A]	.	1d	-nam	1dd	-nam]
1G	.	2B-y	.	.	.	.	.
.	.	1A	-quan-	2r	.	2r	.
2F#i	.	.	.	[2d	ne-	2dd	ne-
=169	=169	=169	=169	=169	=169	=169	=169
1G	-nam	1G	-do,	2d]	.	2dd	-quan-
.	.	.	.	4c	.	2dd	-do
.	.	.	.	4B-y	.	.	.
1r	.	1r	.	1A	-quan-	2cc	i-
.	.	.	.	.	.	2a	-ra-
=170	=170	=170	=170	=170	=170	=170	=170
0r	.	2r	.	0G	-do,	1.b-y	-sca-
.	.	2d	ne-	.	.	.	.
.	.	2d	-quan-	.	.	.	.
.	.	2d	-do	.	.	4a	.
.	.	.	.	.	.	4g	.
=171	=171	=171	=171	=171	=171	=171	=171
1r	.	2c	i-	0r	.	1a	.
.	.	2A	-ra-	.	.	.	.
2r	.	[1B-y	-sca-	.	.	[1g	-tur
2G	ne-	.	.	.	.	.	.
=172	=172	=172	=172	=172	=172	=172	=172
2G	-quan-	2B-]	.	0r	.	1g]	.
2G	-do	4A	.	.	.	.	.
.	.	4G	.	.	.	.	.
2F	i-	1A	.	.	.	1r	.
2D	-ra-	.	.	.	.	.	.
=173	=173	=173	=173	=173	=173	=173	=173
0E-X	-sca-	1G	-tur	2r	.	0r	.
.	.	.	.	2g	ne-	.	.
.	.	2r	.	2g	-quan-	.	.
.	.	2G	Do-	2g	-do	.	.
=174	=174	=174	=174	=174	=174	=174	=174
1D	-tur	2A	.	2f	i-	2r	.
.	.	2B-y	.	2d	-ra-	2b-y	Do-
1r	.	2.c	.	1e-X	-sca-	2a	.
.	.	.	.	.	.	[2g	.
.	.	4B-y	.	.	.	.	.
=175	=175	=175	=175	=175	=175	=175	=175
0r	.	4G	.	1d	-tur	2g]	.
.	.	4A	.	.	.	.	.
.	.	1B-y	.	.	.	4f	.
.	.	.	.	.	.	4e	.
.	.	.	.	2d	Do-	4d	.
.	.	.	.	.	.	4e	.
.	.	4A	.	4c	.	4f	.
.	.	4G	.	4B-y	.	4g	.
=176	=176	=176	=176	=176	=176	=176	=176
0r	.	2F	.	2c	.	2a	.
.	.	2G	.	2B-y	.	1g	.
.	.	1D	-mi-	1A	-mi-	.	.
.	.	.	.	.	.	2f#i	.
=177	=177	=177	=177	=177	=177	=177	=177
2r	.	1G	-nus	1G	-nus	2g	.
2G	… et	.	.	.	.	2b-y	.
2A	pe-	2r	.	1r	.	1a	-mi-
2F	-re-	2c	et	.	.	.	.
=178	=178	=178	=178	=178	=178	=178	=178
1B-y	-a-	2d	pe-	2r	.	1g	-nus
.	.	2B-y	-re-	2d	et	.	.
1A	-tis,	2.c	-a-	2e	pe-	2r	.
.	.	.	.	2c	-re-	2a	et
.	.	4B-y	.	.	.	.	.
=179	=179	=179	=179	=179	=179	=179	=179
2r	.	2A	.	1f	-a-	2a	pe-
2D	[et	2B-y	.	.	.	2f	-re-
2E	pe-	1G	.	1e	-tis,	1g	-a-
2C	-re-	.	.	.	.	.	.
=180	=180	=180	=180	=180	=180	=180	=180
1F	-a-	1F	-tis,	2r	.	1a	-tis,
.	.	.	.	2d	[et	.	.
1E	-tis,]	2r	.	2d	pe-	1r	.
.	.	2G	[et	2c	-re-	.	.
=181	=181	=181	=181	=181	=181	=181	=181
2r	.	2A	pe-	2c	-a-	1r	.
2D	et	2F	-re-	2A	.	.	.
2BB-y	pe-	1B-y	-a-	1d	-tis]	2r	.
2GG	-re-	.	.	.	.	2g	[et
=182	=182	=182	=182	=182	=182	=182	=182
1D	-a-	1A	-tis,]	2r	.	2a	pe-
.	.	.	.	2d	de	2f	-re-
2GG	-tis,	2r	.	2d	vi-	1b-y	-a-
2G	et	2G	et	2d	-a	.	.
=183	=183	=183	=183	=183	=183	=183	=183
2A	pe-	2F	pe-	2.f	iu-	1a	-tis]
2F	-re-	2D	-re-	.	.	.	.
.	.	.	.	4e	.	.	.
1B-y	-a-	1G	-a-	1d	.	2r	.
.	.	.	.	.	.	2g	de
=184	=184	=184	=184	=184	=184	=184	=184
2A	-tis	1D	-tis	2.d	.	2g	vi-
2A	de	.	.	.	.	2f#i	-a
.	.	.	.	4c	.	.	.
[1G	vi-	2r	.	[1B-y	.	2.g	iu-
.	.	2G	de	.	.	.	.
.	.	.	.	.	.	4fny	.
=185	=185	=185	=185	=185	=185	=185	=185
2G]	.	2G	vi-	2B-]	.	4e	.
.	.	.	.	.	.	4d	.
2F	.	2A	-a	2.A	.	1d	.
1E	-a	2B-y	iu-	.	.	.	.
.	.	.	.	4G	.	.	.
.	.	2G	.	[2G	.	2c#i	.
=186	=186	=186	=186	=186	=186	=186	=186
1D	iu-	1A	.	2G]	.	1d	-sta.
.	.	.	.	2F#i	.	.	.
[1GG	-sta.	[1G	-sta.	1G	-sta.	2r	.
.	.	.	.	.	.	[2g	Cum
=187	=187	=187	=187	=187	=187	=187	=187
0GG]	.	0G]	.	2r	.	2g]	.
.	.	.	.	1d	Cum	2g	ex-
.	.	.	.	.	.	1b-y	-ar-
.	.	.	.	2d	ex-	.	.
=188	=188	=188	=188	=188	=188	=188	=188
0r	.	0r	.	1f	-ar-	1a	-se-
.	.	.	.	1e	-se-	1g	-rit
=189	=189	=189	=189	=189	=189	=189	=189
0r	.	0r	.	1d	-rit	2r	.
.	.	.	.	.	.	2f	in
.	.	.	.	2r	.	2g	bre-
.	.	.	.	2c	in	2a	-vi
=190	=190	=190	=190	=190	=190	=190	=190
0r	.	0r	.	2d	bre-	1b-y	i-
.	.	.	.	2e	-vi	.	.
.	.	.	.	1f	i-	2a	-ra
.	.	.	.	.	.	2f	.
=191	=191	=191	=191	=191	=191	=191	=191
2r	.	1r	.	2e	-ra	1.g	e-
1G	Cum	.	.	2.d	e-	.	.
.	.	2r	.	.	.	.	.
.	.	.	.	4B-y	.	.	.
2G	ex-	[2d	Cum	[2B-y	.	4f	.
.	.	.	.	.	.	4e	.
=192	=192	=192	=192	=192	=192	=192	=192
1B-y	-ar-	2d]	.	2B-]	.	1d	-ius,
.	.	2d	ex-	4A	.	.	.
.	.	.	.	4G	.	.	.
1A	-se-	1f	-ar-	1F	-ius,	1r	.
=193	=193	=193	=193	=193	=193	=193	=193
1G	-rit	1e	-se-	0r	.	0r	.
2r	.	1d	-rit	.	.	.	.
2F	in	.	.	.	.	.	.
=194	=194	=194	=194	=194	=194	=194	=194
2G	bre-	2r	.	0r	.	0r	.
2A	-vi	2c	in	.	.	.	.
2B-y	i-	2d	bre-	.	.	.	.
2G	-ra	2e	-vi	.	.	.	.
=195	=195	=195	=195	=195	=195	=195	=195
2A	e-	2f	i-	0r	.	0r	.
2F	.	2d	-ra	.	.	.	.
2G	.	2e	e-	.	.	.	.
[2A	.	[2f	.	.	.	.	.
=196	=196	=196	=196	=196	=196	=196	=196
4A]	.	4f]	.	0r	.	0r	.
4G	.	4e	.	.	.	.	.
2F	.	1d	.	.	.	.	.
1E	.	.	.	.	.	.	.
.	.	2c#i	.	.	.	.	.
=197	=197	=197	=197	=197	=197	=197	=197
1D	-ius,	1d	-ius,	1r	.	1r	.
2r	.	1d	[in	2r	.	2r	.
2G	in	.	.	2g	in	2b-y	in
=198	=198	=198	=198	=198	=198	=198	=198
2G	bre-	2d	bre-	2g	bre-	2b-y	bre-
2G	-vi	2d	-vi	2g	-vi	2b-y	-vi
[1B-y	i-	[1d	i-	[1f	i-	[1b-y	i-
=199	=199	=199	=199	=199	=199	=199	=199
2B-]	.	2d]	.	1f]	.	2b-]	.
2F	-ra	2c	-ra	.	.	2a	-ra
1G	e-	1B-y	e-	1d	-ra	1g	e-
=200	=200	=200	=200	=200	=200	=200	=200
2.D	.	1A	-ius,]	1.d	e-	1f	-ius,
4C	.	.	.	.	.	.	.
2BB-y	.	2r	.	.	.	1r	.
2C	.	2G	be-	[2c	.	.	.
=201	=201	=201	=201	=201	=201	=201	=201
1AA	.	2G	-a-	2c]	.	1r	.
.	.	2F#i	-ti	4B-y	.	.	.
.	.	.	.	4A	.	.	.
1GG	-ius,	1G	o-	2B-y	.	2r	.
.	.	.	.	2G	.	2g	be-
=202	=202	=202	=202	=202	=202	=202	=202
1r	.	1D	-mnes,	1A	.	2g	-a-
.	.	.	.	.	.	2f#i	-ti
2r	.	2G	[o-	1G	-ius,	1g	o-
2G	be-	2B-y	.	.	.	.	.
=203	=203	=203	=203	=203	=203	=203	=203
2G	-a-	1A	-mnes]	2r	.	1d	-mnes
2F#i	-ti	.	.	2A	… o-	.	.
1G	o-	2r	.	2B-y	.	2r	.
.	.	2G	qui	2G	-mnes	2g	qui
=204	=204	=204	=204	=204	=204	=204	=204
1D	-mnes	2G	con-	2r	.	1a	con-
.	.	2F#i	.	2d	qui	.	.
1r	.	2G	-fi-	2d	con-	2b-y	-fi-
.	.	2A	.	2c	-fi-	[2a	-dunt
=205	=205	=205	=205	=205	=205	=205	=205
1D	... in	1D	-dunt	2.d	-dunt	4a]	.
.	.	.	.	.	.	4g	.
.	.	.	.	.	.	2f	.
.	.	.	.	4c	in	.	.
1E-X	e-	1r	.	2B-y	e-	2e-i	in
.	.	.	.	4A	.	[2g	e-
.	.	.	.	4G	.	.	.
=206	=206	=206	=206	=206	=206	=206	=206
1D	.	2r	.	1A	.	4g]	.
.	.	.	.	.	.	4f#i	.
.	.	2d	in	.	.	2f#i	.
1GG	-o,	2.d	e-	1G	-o,	[1g	.
.	.	4c	.	.	.	.	.
=207	=207	=207	=207	=207	=207	=207	=207
2r	.	2B-y	.	0r	.	2g]	.
2D	be-	4A	.	.	.	4f	.
.	.	4G	.	.	.	4e	.
1D	-a-	1F	.	.	.	1d	-o,
=208	=208	=208	=208	=208	=208	=208	=208
2C	-ti	1G	-o,	2r	.	0r	.
1BB-y	o-	.	.	2d	be-	.	.
.	.	1r	.	1d	-a-	.	.
4AA	.	.	.	.	.	.	.
4GG	.	.	.	.	.	.	.
=209	=209	=209	=209	=209	=209	=209	=209
2AA	.	0r	.	2c	-ti	2r	.
2GG	.	.	.	1B-y	o-	2dd	be-
1GG	-mnes,	.	.	.	.	1dd	-a-
.	.	.	.	4A	.	.	.
.	.	.	.	4G	.	.	.
=210	=210	=210	=210	=210	=210	=210	=210
2r	.	2r	.	2A	.	2cc	-ti
2G	be-	2d	be-	2G	.	1b-y	o-
2.B-y	-a-	1d	-a-	1G	-mnes,	.	.
.	.	.	.	.	.	4a	.
4A	.	.	.	.	.	4g	.
=211	=211	=211	=211	=211	=211	=211	=211
2F	.	2c	-ti	2r	.	2a	.
2G	-ti	1B-y	o-	2d	be-	1g	.
1E-X	o-	.	.	2d	-a-	.	.
.	.	4A	.	2c	-ti	4f	.
.	.	4G	.	.	.	4e	.
=212	=212	=212	=212	=212	=212	=212	=212
2D	-mnes	2A	.	2d	o-	2f	.
2GG	qui	2G	-mnes,	4c	.	2.d	.
.	.	.	.	4B-y	.	.	.
2.D	con-	1r	.	[1A	.	.	.
.	.	.	.	.	.	4e	.
.	.	.	.	.	.	4f	.
4E	.	.	.	.	.	4g	.
=213	=213	=213	=213	=213	=213	=213	=213
2F	.	2r	.	2A]	.	2a	.
2G	-fi-	2d	[be-	2B-y	.	2.g	.
1D	-dunt	2.d	-a-	1A	.	.	.
.	.	.	.	.	.	4f#i	.
.	.	.	.	.	.	2f#i	.
.	.	4c	-ti	.	.	.	.
=214	=214	=214	=214	=214	=214	=214	=214
2r	.	2.B-y	o-	1G	-mnes	2g	.
2BB-y	in	.	.	.	.	2d	.
.	.	4A	.	.	.	.	.
1C	e-	1G	-mnes]	2r	.	1e	.
.	.	.	.	2c	qui	.	.
=215	=215	=215	=215	=215	=215	=215	=215
1D	.	2r	.	1A	con-	1d	-mnes
.	.	2F	qui	.	.	.	.
1GG	-o,	1G	con-	1B-y	-fi-	2r	.
.	.	.	.	.	.	2b-y	qui
=216	=216	=216	=216	=216	=216	=216	=216
0r	.	1A	-fi-	2A	-dunt	1cc	con-
.	.	.	.	2.F	in	.	.
.	.	2D	-dunt	.	.	1dd	-fi-
.	.	.	.	4G	.	.	.
.	.	2F	in	2A	.	.	.
=217	=217	=217	=217	=217	=217	=217	=217
2r	.	1E	e-	2B-y	e-	1g	-dunt,
1G	qui	.	.	2G	.	.	.
.	.	1D	-o,	1A	.	2r	.
2F	con-	.	.	.	.	[2dd	qui
=218	=218	=218	=218	=218	=218	=218	=218
1G	-fi-	1d	[qui	2G	-o,	2dd]	.
.	.	.	.	1g	qui	2dd	con-
1D	-dunt	2d	con-	.	.	2dd	-fi-
.	.	2d	-fi-	2f	con-	2dd	-dunt
=219	=219	=219	=219	=219	=219	=219	=219
2G	in	2.B-y	-dunt	2g	-fi-	2.dd	in
2.B-y	e-	.	.	2.d	-dunt	.	.
.	.	4c	in	.	.	4cc	.
.	.	2.d	e-	.	.	2b-y	.
4A	.	.	.	4e	in	.	.
2F	.	.	.	2f	e-	[2a	e-
.	.	4c	.	.	.	.	.
=220	=220	=220	=220	=220	=220	=220	=220
2G	.	2B-y	.	2d	.	4a]	.
.	.	.	.	.	.	4g	.
2C	.	2c	.	2e	.	1g	.
1D	.	1A	-o,]	1d	.	.	.
.	.	.	.	.	.	2f#i	.
=221	=221	=221	=221	=221	=221	=221	=221
1GG	-o,	2r	.	2.B-y	.	2g	.
.	.	1G	in	.	.	2b-y	.
.	.	.	.	4A	.	.	.
1r	.	.	.	4B-y	.	1a	.
.	.	.	.	4c	.	.	.
.	.	2F	e-	[2d	.	.	.
=222	=222	=222	=222	=222	=222	=222	=222
2r	.	1G	.	2d]	.	1g	-o,
1G	qui	.	.	4c	.	.	.
.	.	.	.	4B-y	.	.	.
.	.	1D	-o,	1A	.	2r	.
2F	con-	.	.	.	.	[2dd	qui
=223	=223	=223	=223	=223	=223	=223	=223
1G	-fi-	1d	qui	2G	-o,	2dd]	.
.	.	.	.	1g	qui	2dd	con-
1D	-dunt	2d	con-	.	.	2dd	-fi-
.	.	2d	-fi-	2f	con-	2dd	-dunt
=224	=224	=224	=224	=224	=224	=224	=224
2G	in	2.B-y	-dunt	2g	-fi-	2.dd	in
2.B-y	e-	.	.	2.d	-dunt	.	.
.	.	4c	in	.	.	4cc	.
.	.	2.d	e-	.	.	2b-y	.
4A	.	.	.	4e	in	.	.
2F	.	.	.	2f	e-	[2a	e-
.	.	4c	.	.	.	.	.
=225	=225	=225	=225	=225	=225	=225	=225
2G	.	2B-y	.	2d	.	4a]	.
.	.	.	.	.	.	4g	.
2C	.	2c	.	2e	.	1g	.
1D	.	1A	.	1d	.	.	.
.	.	.	.	.	.	2f#i	.
=226	=226	=226	=226	=226	=226	=226	=226
00GGl	-o.	00Gl	-o.	00dl	-o.	00gl	-o.
==	==	==	==	==	==	==	==
*-	*-	*-	*-	*-	*-	*-	*-
!!!system-decoration: [*]
!!!RDF**kern: i = editorial accidental
!!!RDF**kern: l = terminal long
!!!!PTL: <i> New Senfl Edition: Motets for Four Voices (N-V) </i>
!!!PPR: Hollitzer Verlag
!!!PC#: Denkmäler der Tonkunst in Österreich 163.2
!!!PDT: 2022
!!!PED: Scott Lee Edwards, Stefan Gasch, and Sonja Tröster
!!!YEC: Copyright 2022 Denkmäler der Tonkunst in Österreich
!!!YEM: CC-BY-NC 4.0 (https://creativecommons.org/licenses/by-nc/4.0/legalcode)
!!!EED: Benjamin Ory
!!!EEV: 2024/12/1
!!!verovio: header encoded
!!!header-left: @{PTL}\n@{PED}, eds.\n@{PC#} (@{PDT})&nbsp;\n
!!!header-right:
!!!header-center: